DVA
CUT[Nun adje, jetzt muss ich fort]
REG[Europa, Mitteleuropa, Lothringen, Altripp]
KEY[D0005  16  G 3/2]
MEL[   1__-5__  1__.2_3___2__1_3_  2___0___
    1__-5__  1__.2_3___2__1_3_  2___0__
    1_2_3__1__  5__.6_5__4_3_2__1__  4__.5_3__
    2_4_3__2__  1__.2_3__4_2_5__5_.4  3___0___ //] >>
FCT[Soldaten - Lied]
CMT[Inzipit = entfernte Variante zum Lied  ??]
